svgs/thin/castle.svg

<svg xmlns="http://www.w3.org/2000/svg" viewBox="0 0 640 512"><!--! Font Awesome Pro 6.6.0 by @fontawesome - https://fontawesome.com License - https://fontawesome.com/license (Commercial License) Copyright 2024 Fonticons, Inc. --><path d="M128 24c0-13.3 10.7-24 24-24l32 0c13.3 0 24 10.7 24 24l0 48 24 0 0-48c0-13.3 10.7-24 24-24l24 0c13.3 0 24 10.7 24 24l0 48 32 0 0-48c0-13.3 10.7-24 24-24l24 0c13.3 0 24 10.7 24 24l0 48 24 0 0-48c0-13.3 10.7-24 24-24l32 0c13.3 0 24 10.7 24 24l0 200 48 0 0-40c0-13.3 10.7-24 24-24l32 0c13.3 0 24 10.7 24 24l0 256c0 39.8-32.2 72-72 72L72 512c-39.8 0-72-32.2-72-72L0 184c0-13.3 10.7-24 24-24l32 0c13.3 0 24 10.7 24 24l0 40 48 0 0-200zm8 216l-8 0-56 0c-4.4 0-8-3.6-8-8l0-48c0-4.4-3.6-8-8-8l-32 0c-4.4 0-8 3.6-8 8l0 256c0 30.9 25.1 56 56 56l168 0 0-104c0-44.2 35.8-80 80-80s80 35.8 80 80l0 104 168 0c30.9 0 56-25.1 56-56l0-256c0-4.4-3.6-8-8-8l-32 0c-4.4 0-8 3.6-8 8l0 48c0 4.4-3.6 8-8 8l-56 0-8 0-368 0zm360-16l0-200c0-4.4-3.6-8-8-8l-32 0c-4.4 0-8 3.6-8 8l0 56c0 4.4-3.6 8-8 8l-40 0c-4.4 0-8-3.6-8-8l0-56c0-4.4-3.6-8-8-8l-24 0c-4.4 0-8 3.6-8 8l0 56c0 4.4-3.6 8-8 8l-48 0c-4.4 0-8-3.6-8-8l0-56c0-4.4-3.6-8-8-8l-24 0c-4.4 0-8 3.6-8 8l0 56c0 4.4-3.6 8-8 8l-40 0c-4.4 0-8-3.6-8-8l0-56c0-4.4-3.6-8-8-8l-32 0c-4.4 0-8 3.6-8 8l0 200 352 0zM384 392c0-35.3-28.7-64-64-64s-64 28.7-64 64l0 104 128 0 0-104z"/></svg>

<svg xmlns="http://www.w3.org/2000/svg" viewBox="0 0 640 512"><!--! Font Awesome Pro 6.5.2 by @fontawesome - https://fontawesome.com License - https://fontawesome.com/license (Commercial License) Copyright 2024 Fonticons, Inc. --><path d="M128 24c0-13.3 10.7-24 24-24h32c13.3 0 24 10.7 24 24V72h24V24c0-13.3 10.7-24 24-24h24c13.3 0 24 10.7 24 24V72h32V24c0-13.3 10.7-24 24-24h24c13.3 0 24 10.7 24 24V72h24V24c0-13.3 10.7-24 24-24h32c13.3 0 24 10.7 24 24V224h48V184c0-13.3 10.7-24 24-24h32c13.3 0 24 10.7 24 24V440c0 39.8-32.2 72-72 72H72c-39.8 0-72-32.2-72-72V184c0-13.3 10.7-24 24-24H56c13.3 0 24 10.7 24 24v40h48V24zm8 216h-8H72c-4.4 0-8-3.6-8-8V184c0-4.4-3.6-8-8-8H24c-4.4 0-8 3.6-8 8V440c0 30.9 25.1 56 56 56H240V392c0-44.2 35.8-80 80-80s80 35.8 80 80V496H568c30.9 0 56-25.1 56-56V184c0-4.4-3.6-8-8-8H584c-4.4 0-8 3.6-8 8v48c0 4.4-3.6 8-8 8H512h-8H136zm360-16V24c0-4.4-3.6-8-8-8H456c-4.4 0-8 3.6-8 8V80c0 4.4-3.6 8-8 8H400c-4.4 0-8-3.6-8-8V24c0-4.4-3.6-8-8-8H360c-4.4 0-8 3.6-8 8V80c0 4.4-3.6 8-8 8H296c-4.4 0-8-3.6-8-8V24c0-4.4-3.6-8-8-8H256c-4.4 0-8 3.6-8 8V80c0 4.4-3.6 8-8 8H200c-4.4 0-8-3.6-8-8V24c0-4.4-3.6-8-8-8H152c-4.4 0-8 3.6-8 8V224H496zM384 392c0-35.3-28.7-64-64-64s-64 28.7-64 64V496H384V392z"/></svg>
